X:4933
T:Fahy's
R:Reel
S:
H:
N:
D:Milltown Malbay Concertina Recital
Z:Adrian Scahill
M:4/4
L:1/8
K:G
_B3=b c2dc|BAGd DE (3=FGF|GABd c2dc|BGAF DGGA|\
_Bd=Bd c2dc|BAGd DE (3=FGF|GABG c2dc|1 (3BAG AF DGGA:|2 (3BAG AF DGGB||\
d2(3gag dgbd|(3efg ag fdcA|c=ff2 cfaf|c=fag ^fdcA|\
dgg2 dgbd|(3efg ag (3fed ef|gbag (3fed ge|fdcA G3B:||
